X: 29562
T: Noisy Curlew, The
R: reel
M: 4/4
K: Dmajor
|:DF F2 DG G2|DF F2 EFDE|DF F2 ABde|fdAG FD D2|
DF F2 DG G2|DF F2 EFDE|DF F2 ABde|fdAG FD D2:|
|:fgaf g2 ag|fgaf gfeg|fgaf g2 ag|fdAG FD D2|
fgaf g2 ag|fgaf gfeg|fdAF G2 ag|fdAG FD D2:|

